resources/svg/bell-line.svg

<svg fill="currentColor" viewBox="0 0 24 24" xmlns="http://www.w3.org/2000/svg"><path d="M14.1213 9.87853C18.4171 14.1743 20.9497 18.6065 19.7782 19.778C19.3031 20.2531 18.2918 20.1191 16.971 19.5054C13.746 21.645 9.44716 21.4872 6.38175 19.0319L6.34315 19.0709L4.92893 17.6567L4.96734 17.6173C2.51262 14.552 2.35503 10.2536 4.49456 7.02993C3.88075 5.70785 3.74678 4.69672 4.22183 4.22168C5.34959 3.09391 9.49865 5.39854 13.639 9.40413L14.1213 9.87853ZM12.7071 11.2927C10.823 9.40864 8.86963 7.84183 7.23581 6.86941L7.05025 7.0501C4.55691 9.54345 4.33771 13.4498 6.39266 16.1916L8.23943 14.3461C8.06128 13.6789 8.23392 12.9375 8.75736 12.4141C9.53841 11.633 10.8047 11.633 11.5858 12.4141C12.3668 13.1951 12.3668 14.4614 11.5858 15.2425C11.0626 15.7656 10.3218 15.9384 9.65487 15.7607L7.80749 17.6066C10.5493 19.6622 14.4562 19.4432 16.9497 16.9496L17.1286 16.7622L17.076 16.6732C16.1001 15.0581 14.5564 13.1421 12.7071 11.2927ZM19.7782 4.22168C20.5592 5.00273 20.5592 6.26906 19.7782 7.0501C19.7254 7.10287 19.6704 7.15207 19.6135 7.19771C21.2057 9.71492 21.4267 12.852 20.276 15.5425C19.8994 14.8063 19.4347 14.0315 18.8899 13.2367C19.2795 11.0595 18.6326 8.73296 16.9497 7.0501C15.2669 5.36725 12.9404 4.72037 10.7627 5.10945C9.96765 4.56476 9.19311 4.10017 8.45731 3.72435C11.1478 2.57323 14.2849 2.79415 16.8039 4.38683C16.8478 4.32943 16.897 4.27444 16.9497 4.22168C17.7308 3.44063 18.9971 3.44063 19.7782 4.22168Z"/></svg>

<svg xmlns="http://www.w3.org/2000/svg" viewBox="0 0 24 24" fill="currentColor">
    <g>
        <path fill="none" d="M0 0h24v24H0z"/>
        <path fill-rule="nonzero" d="M14.121 9.879c4.296 4.295 6.829 8.728 5.657 9.9-.475.474-1.486.34-2.807-.273a9.008 9.008 0 0 1-10.59-.474l-.038.04-1.414-1.415.038-.04A9.006 9.006 0 0 1 4.495 7.03c-.614-1.322-.748-2.333-.273-2.808 1.128-1.128 5.277 1.177 9.417 5.182l.482.475zm-1.414 1.414C10.823 9.409 8.87 7.842 7.236 6.87l-.186.18a7.002 7.002 0 0 0-.657 9.142l1.846-1.846a2 2 0 1 1 1.416 1.415l-1.848 1.846a7.002 7.002 0 0 0 9.143-.657l.179-.188-.053-.089c-.976-1.615-2.52-3.53-4.369-5.38zm7.071-7.071a2 2 0 0 1-.164 2.976 9.015 9.015 0 0 1 .662 8.345 21.168 21.168 0 0 0-1.386-2.306 6.99 6.99 0 0 0-1.94-6.187 6.992 6.992 0 0 0-6.187-1.94 21.092 21.092 0 0 0-2.306-1.386 9.016 9.016 0 0 1 8.347.663 2 2 0 0 1 2.974-.165z"/>
    </g>
</svg>
